build/system/ThirdPersonSolid.svg

<svg xmlns="http://www.w3.org/2000/svg" fill="none" viewBox="0 0 24 24" focusable="false"><path d="M0 0H24V24H0z"/><path fill="#74767B" fill-rule="evenodd" d="M12 3C9.33497 3 7.26365 5.32002 7.56456 7.96802L7.8266 10.274C8.06781 12.3966 9.86377 14 12 14C14.1363 14 15.9322 12.3966 16.1734 10.274L16.4355 7.96803C16.7364 5.32002 14.6651 3 12 3ZM18.5109 20.8713C19.2828 20.5507 19.79 19.8336 19.79 19.0001C19.79 18.2944 19.5199 17.7322 19.0818 17.3481C19.2128 17.1979 19.3212 17.0305 19.4051 16.8522C19.717 16.1893 19.6981 15.3553 19.2505 14.7129C18.8388 14.1218 18.255 13.8044 17.6028 13.7641C16.9765 13.7255 16.3452 13.9442 15.7824 14.2992C15.4788 14.4908 15.388 14.8922 15.5796 15.1958C15.7711 15.4994 16.1725 15.5902 16.4761 15.3987C16.8865 15.1398 17.2486 15.0448 17.5227 15.0617C17.7709 15.077 17.9946 15.1843 18.1839 15.456C18.3374 15.6764 18.3647 16.0099 18.2288 16.2987C18.1061 16.5596 17.8566 16.7693 17.4347 16.7693L16.8754 16.7693C16.5165 16.7693 16.2254 17.0603 16.2254 17.4193C16.2254 17.7783 16.5164 18.0693 16.8754 18.0693L17.4347 18.0693C17.7415 18.0693 18.0145 18.157 18.1959 18.3015C18.3569 18.4297 18.49 18.6348 18.49 19.0001C18.49 19.2777 18.3278 19.5397 18.0122 19.6708C17.6995 19.8007 17.1638 19.8206 16.4626 19.4017C16.1544 19.2177 15.7553 19.3183 15.5712 19.6265C15.3872 19.9347 15.4878 20.3338 15.796 20.5178C16.7666 21.0975 17.7363 21.1931 18.5109 20.8713ZM12.9944 15C13.7124 15 14.2944 15.582 14.2944 16.3L14.2944 19.7C14.2944 20.418 13.7123 21 12.9944 21L4.87265 21C4.42482 21 4.09217 20.5853 4.18932 20.1481L4.28926 19.6984C4.89931 16.9532 7.33419 15 10.1464 15L12.9944 15Z"/></svg>

<svg xmlns="http://www.w3.org/2000/svg" fill="none" viewBox="0 0 24 24" focusable="false"><path fill="#74767B" fill-rule="evenodd" d="M7.56 7.96C7.26 5.32 9.33 3 12 3a4.46 4.46 0 0 1 4.43 4.96l-.26 2.31A4.206 4.206 0 0 1 12 14c-2.14 0-3.94-1.61-4.18-3.73zm10.95 12.91c.77-.32 1.28-1.04 1.28-1.87 0-.71-.27-1.27-.71-1.66.13-.15.24-.31.32-.49.31-.67.29-1.5-.15-2.14-.42-.59-1-.91-1.65-.95-.63-.04-1.26.18-1.82.53-.31.2-.4.6-.21.9.2.3.6.4.9.2.41-.26.77-.35 1.05-.33.25.01.47.12.66.39.15.22.18.55.04.84-.12.26-.37.47-.79.47h-.56c-.36 0-.65.3-.65.65 0 .36.29.65.65.65h.56c.31 0 .58.09.76.24.16.12.3.33.3.7 0 .27-.17.53-.48.67-.32.13-.85.15-1.55-.27a.64.64 0 0 0-.89.22.64.64 0 0 0 .22.89c.97.58 1.94.68 2.72.36M12.99 15c.72 0 1.3.58 1.3 1.29v3.41c0 .71-.58 1.3-1.3 1.3H4.87c-.45 0-.78-.42-.69-.86l.1-.45A6 6 0 0 1 10.14 15z"/></svg>
